!!!!SEGMENT: pl-sa--481-a-viii-121--008_mehul-etienne-nicolas--la-dansomaine.krn
!!!cenid: 18xx:379
!!!COM: Méhul, Etienne-Nicolas
!!!COM-rismID: pe101056
!!!CDT: 1763/06/22-1817/10/18
!!!CNT: French
!!!OTL: La Dansomaine
!!!PDT:
!!!AGN: Secular
!!!SMS-siglum: PL-SA
!!!SMS-shelfmark: 481/A VIII 121
!!!SMS-shelfwork: 008 W
!!!SMS-variant:
!!!SMS-altvar:
!!!NIFC-rismSourceID: 1001070459
!!!NIFC-rismChildID: 1001070459
!!!NIFC-islandoraID: none
!!!URL-pdf-islandora:
!!!URL-scan: https://bc.bdsandomierz.pl/dlibra/publication/1212/edition/1171/content @EN{Scan in the Sandomierz Diocese Digital Library} @PL{Skany w portalu Cyfrowa Biblioteka Diecezjalna w Sandomierzu}
!!!ONB-nifc: Str. 6, s. 4-5
!!!AIN: 1 piano
!!!key:
**kern	**kern
*part1	*part1
*staff2	*staff1
*Ipiano	*Iempty
*I"Piano	*
*I'P-no	*
*clefF4	*clefG2
*k[b-e-]	*k[b-e-]
*B-:	*B-:
*M2/4	*M2/4
!	!LO:TX:b:i:t=La Dansomaine
8r	16dd\LL
.	16ee-\JJ
=1	=1
8DL 8BB-\	16een\LL
.	16ff\
8F\J	16gg\
.	16ff\JJ
!LO:TX:a:t=P:problem=mixed beam	!
8FF/L	16ee-X\LL
.	16dd\
8F\J	16ee-\
.	16cc\JJ
=2	=2
8DL 8BB-\	8b-\L
8F\J	8b-\J
*rep	*
8DL 8BB-\	8b-\L
8F\J	16a\L
.	16b-\JJ
*Xrep	*
=3	=3
8E-L 8AA/	8cc\L
8F/J	8cc\J
*rep	*
8E-L 8AA/	16dd\LL
.	16cc\
8F/J	16b-\
.	16cc\JJ
*Xrep	*
=4	=4
8DL 8BB-\	4dd\
8F\	.
8DJ 8BB-\	8b-\L
8r	16dd\L
.	16ee-\JJ
=5	=5
8DL 8BB-\	16een\LL
.	16ff\
8F\J	16gg\
.	16ff\JJ
!LO:TX:a:t=P:problem=mixed beam	!
8FF/L	16ee-X\LL
.	16dd\
8F\J	16ee-\
.	16cc\JJ
=6	=6
8DL 8BB-\	8b-\L
8F\	8b-\J
8DJ 8BB-\	8b-\L
8r	16a\L
.	16b-\JJ
=7	=7
4E-\	8cc\L
.	8cc\J
4F\	16cc\LL
.	16b-\
.	16a\
.	16b-\JJ
=8	=8
4.BB-/	4b-\
.	8b-\
=||;	=||;
8r	16a\LL
.	16b-\JJ
=9	=9
!LO:TX:a:t=P:problem=mixed beam	!
8FF/L	16bn\LL
.	16cc\
8F\	16dd\
.	16cc\JJ
8F\	16b-X/LL
.	16a/
8F\J	16g/
.	16f/JJ
=10	=10
*rep	*
!LO:TX:a:t=P:problem=mixed beam	!
8FF\L	8.ff\L
8F\	.
.	16een\Jk
8F\	16dd\LL
.	16cc\
8F\J	16b-\
.	16a\JJ
*Xrep	*
=11	=11
4E-\	8g/L
.	8g/J
4En\	8cc\L
.	8cc\J
!LO:LB:g=original	!LO:LB:g=original
=12	=12
!LO:TX:a:t=P:problem=mixed beam	!
8F\L	(<4a\
8FF/	.
8F\J	8f\L)
8r	16g\L
.	16a\JJ
=13	=13
!LO:TX:a:t=P:problem=mixed beam	!
8FF/L	16bn\LL
.	16cc\
8F\	16dd\
.	16cc\JJ
8F\	16b-X/LL
.	16a/
8F\J	16g/
.	16f/JJ
=14	=14
*rep	*
!LO:TX:a:t=P:problem=mixed beam	!
8FF/L	8.ff\L
8F\	.
.	16een\Jk
8F\	16dd\LL
.	16cc\
8F\J	16b-\
.	16a\JJ
*Xrep	*
=15	=15
4BB-/	8g\L
.	8g\J
4C/	8cc\L
.	8cc\J
=16	=16
8F/L	[4f/
8C/	.
!	!LO:TX:a:t=P:problem=mixed beam
8FF/J	8f/L]
8r	16ff\L
.	16ff\JJ
=17	=17
4f\	8aa-X\L
.	8aa-\J
4d\	8ff\L
.	8ff\J
=18	=18
4Bn\	8dd\L
.	8dd\
4G\	8bn\
.	8g\J
=19	=19
8E-/L	8cc\L
8C/J	8cc\
8BBn/L	8dd\
8GG/J	8dd\J
=20	=20
8C/L	(4ee-\
8GG/	.
8CC/J	8cc\L)
8r	16ee-\L
.	16ff\JJ
=21	=21
4e-\	8gg\L
.	8gg\
4c\	8ee-\
.	8ee-\J
=22	=22
4A\	8cc\L
.	8cc\
4F\	8a\
.	8f\J
=23	=23
!LO:N:vis=4.	!
4B-\	16b-\LL
.	16dd\
.	16cc\
.	16ee-\JJ
4r	16dd\LL
.	16ff\
.	16ee-\
.	16gg\JJ
=24	=24
8DL 8BB-\	4ff\
8F\	.
8DJ 8BB-\	8bb-\
!LO:TX:a:t=[segno]:problem=znak segno na kresce taktowej	!LO:TX:a:t=[segno]:problem=znak segno na kresce taktowej
=||	=||
!	!LO:TX:b:i:t=Mineur
8r	8dd\
=25	=25
8B- 8G\L	4gg\
8d\J	.
*rep	*
8B- 8G\L	4bb-\
8d\J	.
*Xrep	*
=26	=26
*rep	*
8B- 8G\L	4.ee\
8d\J	.
*Xrep	*
*rep	*
8B- 8G\L	.
8d\J	16ccc\LL
.	16bb-\JJ
*Xrep	*
=27	=27
4C/	16aa\LL
.	16bb-\
.	16ccc\
.	16aa\JJ
4D/	16ddd\LL
.	16ccc\
.	16bb-\
!	!LO:TX:a:t=P:problem=brak dalszej części utworu
.	16aa\JJ
=	=
*-	*-
!!!system-decoration: s1,s2
!!!RDF**kern: < = below
!!!ENC: Marta Lawrence
!!!END: 2020-11-20
!!!ENC: Marcin Jachim
!!!END: 2020-06-14
!!!YEC: Copyright 2022 Narodowy Instytut Fryderyka Chopina (https://polishscores.org)
!!!YEM: License CC-BY-4.0 (https://creativecommons.org/licenses/by/4.0)
